X: 1
T: Big John McNeil
T: John McNeil's Reel
%date: 1870
C: Peter Milne (1824-1908)
N: Peter Milne was a friend and teacher of J.S.Skinner.
B: Hunter 237, BSFC IX-2, John McNeil's Reel in SFT p.13, NEFR p.133
B: Middleton’s "Selection of Strathspeys, Reels &c. for the Violin", 1870, p.23
B: Moffat "Dance Music of the North", 1908, #31
M: C|
L: 1/8
K: A
   E !segno!|\
"A"A,2CE FECE | AECE FECE | A,2CE FECE | "D"FAGF "E7"EDCB, |
"A"A,2CE FECE | AECE FECE | "D"B,DCE DFEG | "E7"FAGB "A"cA A :|
|: c |\
"A"eAfA eAca | eAfA e2 (3fga | eAfA eAce | "D"da"(A)"ca "E7"B2cd |
"A"eAfA eAca | eAfA e2fg | agfe "D"fedc |1 "E7"defg "A"a2A :|2 "E7"BAGF EDC".d.S."B, |] "A"HA,4 |]
